.gitbook/assets/Actions (1).svg

<svg xmlns="http://www.w3.org/2000/svg" width="404" height="251" fill="none" viewBox="0 0 404 251"><path fill="#FC6469" d="M0 0h404v251H0z"/><path fill="#360103" fill-rule="evenodd" d="M162.658 162.74h78.684c-3.109-18.915-19.546-33.348-39.342-33.348s-36.233 14.433-39.342 33.348Zm-6.603.018c3.164-22.544 22.529-39.891 45.945-39.891s42.781 17.347 45.945 39.891c.5 3.569-2.469 6.506-6.072 6.506h-79.746c-3.603 0-6.572-2.937-6.072-6.506Z" clip-rule="evenodd"/><path fill="#360103" fill-rule="evenodd" d="M199.108 140.622c-14.109 0-21.207 11.791-22.962 17.933a3.263 3.263 0 0 1-6.274-1.792c2.112-7.391 10.867-22.665 29.236-22.665a3.262 3.262 0 0 1 0 6.524Zm25.723-26.999c7.207 0 13.049-5.842 13.049-13.049s-5.842-13.05-13.049-13.05-13.05 5.843-13.05 13.05c0 7.207 5.843 13.049 13.05 13.049Zm0 6.525c10.81 0 19.574-8.764 19.574-19.574 0-10.81-8.764-19.574-19.574-19.574-10.811 0-19.574 8.763-19.574 19.574 0 10.81 8.763 19.574 19.574 19.574Z" clip-rule="evenodd"/><path fill="#360103" fill-rule="evenodd" d="m221.402 117.923-3.262 9.787-6.19-2.064 3.263-9.787 6.189 2.064Z" clip-rule="evenodd"/></svg>

<svg width="404" height="251" viewBox="0 0 404 251" fill="none" xmlns="http://www.w3.org/2000/svg">
<rect width="404" height="251" fill="#FC6469"/>
<path fill-rule="evenodd" clip-rule="evenodd" d="M162.658 162.74H241.342C238.233 143.825 221.796 129.392 202 129.392C182.204 129.392 165.767 143.825 162.658 162.74ZM156.055 162.758C159.219 140.214 178.584 122.867 202 122.867C225.416 122.867 244.781 140.214 247.945 162.758C248.445 166.327 245.476 169.264 241.873 169.264H162.127C158.524 169.264 155.555 166.327 156.055 162.758Z" fill="#360103"/>
<path fill-rule="evenodd" clip-rule="evenodd" d="M199.108 140.622C184.999 140.622 177.901 152.413 176.146 158.555C175.651 160.287 173.845 161.291 172.113 160.796C170.381 160.301 169.377 158.495 169.872 156.763C171.984 149.372 180.739 134.098 199.108 134.098C200.909 134.098 202.37 135.558 202.37 137.36C202.37 139.162 200.909 140.622 199.108 140.622Z" fill="#360103"/>
<path fill-rule="evenodd" clip-rule="evenodd" d="M224.831 113.623C232.038 113.623 237.88 107.781 237.88 100.574C237.88 93.367 232.038 87.5246 224.831 87.5246C217.624 87.5246 211.781 93.367 211.781 100.574C211.781 107.781 217.624 113.623 224.831 113.623ZM224.831 120.148C235.641 120.148 244.405 111.384 244.405 100.574C244.405 89.7635 235.641 81 224.831 81C214.02 81 205.257 89.7635 205.257 100.574C205.257 111.384 214.02 120.148 224.831 120.148Z" fill="#360103"/>
<path fill-rule="evenodd" clip-rule="evenodd" d="M221.402 117.923L218.14 127.71L211.95 125.646L215.213 115.859L221.402 117.923Z" fill="#360103"/>
</svg>
